apps/www/public/images/logos/frameworks/flutterflow.svg

<svg width="61" height="62" viewBox="0 0 61 62" fill="none" xmlns="http://www.w3.org/2000/svg">
<path fill-rule="evenodd" clip-rule="evenodd" d="M44.7142 12.6406C45.7879 12.6406 46.7818 13.2175 47.2853 14.1553C47.7677 15.0536 47.7472 16.1121 47.2318 16.9907L47.2142 17.0202L42.6965 24.5242C42.1856 25.3728 41.2633 25.9024 40.2775 25.9137L40.2453 25.9139L35.0864 25.9138L37.2306 30.7881L37.2392 30.8023L37.2524 30.8254C37.7573 31.7316 37.745 32.8091 37.2213 33.7018L37.2037 33.7315L32.6859 41.2355C32.175 42.084 31.2527 42.6136 30.267 42.6249L30.2349 42.6251L23.9028 42.6251L19.3509 47.3922L19.3423 47.401C18.9139 47.8334 18.3352 48.0746 17.7318 48.0746C17.5809 48.0746 17.43 48.0594 17.2806 48.0292C16.5446 47.88 15.933 47.3785 15.6387 46.6868L15.6304 46.6671L13.2349 41.207L13.2223 41.1861L13.2092 41.1635C13.207 41.1597 13.2048 41.1557 13.2025 41.1516C12.6975 40.2454 12.7097 39.168 13.2334 38.2752L13.251 38.2455L17.6328 30.9674L14.4041 23.628L14.4632 23.5981L14.4623 23.5937C14.3257 22.9186 14.4357 22.2146 14.7865 21.5979L14.8059 21.5644L14.8238 21.5342L19.3416 14.0302C19.8526 13.1817 20.7749 12.6521 21.7606 12.6406H21.7927H44.7142ZM20.9923 42.568L16.1921 42.568L17.602 45.8062L17.6055 45.8148C17.6288 45.8728 17.6666 45.9046 17.7229 45.9161C17.7731 45.9264 17.8137 45.9158 17.8521 45.881L17.8588 45.8745L20.9923 42.568ZM34.7145 31.435H20.2047C20.1887 31.435 20.1727 31.4355 20.1567 31.4366L20.1523 31.4369L24.1307 40.4731H30.2341C30.485 40.4731 30.7267 40.3397 30.8641 40.1255L30.875 40.1079L35.3993 32.5993C35.5343 32.3754 35.5492 32.1155 35.4423 31.8816C35.319 31.612 35.0328 31.435 34.7145 31.435ZM18.6964 33.2905L15.1056 39.3C14.9627 39.5391 14.9545 39.8193 15.0824 40.0658L15.096 40.0908L15.1032 40.1031L15.1177 40.1266L15.1464 40.1691L15.1785 40.2105L15.2091 40.2453L15.2145 40.2509L15.2352 40.2717L15.2532 40.2888C15.3662 40.3906 15.5058 40.4527 15.6598 40.4687L15.6944 40.4716L15.7144 40.4726L15.7398 40.4731H21.8323L18.6964 33.2905ZM17.7522 25.9284L19.3292 29.5196L19.36 29.5092C19.6323 29.4188 19.9171 29.3697 20.2049 29.3652L20.2481 29.3649L34.3128 29.3649L32.8038 25.9284L17.7522 25.9284ZM44.6742 14.7355H30.1126L34.0923 23.7736H40.1935C40.4448 23.7736 40.6867 23.6401 40.8242 23.4258L40.8351 23.4083L45.3597 15.8998C45.4946 15.6759 45.5096 15.4162 45.4027 15.1826C45.2819 14.9184 45.005 14.7431 44.6945 14.7358L44.6742 14.7355ZM27.8835 14.7355H21.8161C21.5665 14.7355 21.3259 14.8687 21.189 15.0827L21.1781 15.1002L16.6654 22.6088C16.5307 22.8329 16.5158 23.0932 16.6226 23.3273C16.743 23.5912 17.0185 23.766 17.3271 23.7734L17.3473 23.7736H31.8527L27.8835 14.7355Z" fill="#7E7E7E"/>
</svg>

<svg xmlns="http://www.w3.org/2000/svg" width="61" height="62" fill="none" viewBox="0 0 61 62"><path fill="#7e7e7e" fill-rule="evenodd" d="M44.714 12.64a2.91 2.91 0 0 1 2.571 1.515 2.87 2.87 0 0 1-.053 2.836l-.018.03-4.517 7.503a2.88 2.88 0 0 1-2.42 1.39h-5.191l2.145 4.874.008.014.013.023a2.87 2.87 0 0 1-.03 2.877l-.018.03-4.518 7.504a2.88 2.88 0 0 1-2.419 1.389h-6.364l-4.552 4.767-.009.009a2.27 2.27 0 0 1-2.061.628 2.27 2.27 0 0 1-1.642-1.342l-.009-.02-2.395-5.46-.013-.02-.013-.023-.006-.012a2.87 2.87 0 0 1 .03-2.877l.018-.03 4.382-7.278-3.229-7.339.06-.03-.002-.004a2.87 2.87 0 0 1 .325-1.996l.019-.034.018-.03 4.518-7.504a2.88 2.88 0 0 1 2.419-1.39h22.953M20.992 42.569h-4.8l1.41 3.238.003.009q.035.086.118.101c.05.01.09 0 .13-.035l.006-.007zm13.723-11.133h-14.51l-.048.002h-.005l3.979 9.036h6.103c.251 0 .493-.133.63-.347l.011-.018 4.524-7.509a.76.76 0 0 0 .043-.717.79.79 0 0 0-.727-.447m-16.019 1.856-3.59 6.009a.77.77 0 0 0-.024.766l.014.025.007.012.015.024.028.042.032.042.031.034.005.006.021.02.018.018a.7.7 0 0 0 .407.18l.034.003h.02l.026.001h6.092zm-.944-7.363 1.577 3.592.031-.01c.272-.091.557-.14.845-.145h14.108l-1.51-3.437zm26.922-11.192H30.113l3.98 9.038h6.1a.76.76 0 0 0 .631-.348l.011-.018L45.36 15.9a.76.76 0 0 0 .043-.717.79.79 0 0 0-.709-.447zm-16.79 0h-6.068c-.25 0-.49.133-.627.347l-.01.017-4.514 7.509a.76.76 0 0 0-.042.718.79.79 0 0 0 .704.446h14.526z" clip-rule="evenodd"/></svg>
